X:1
T:Title
%%score { ( 1 3 ) | ( 2 4 ) }
L:1/8
M:4/4
K:Bb
V:1 treble nm="Grand Piano"
V:3 treble 
V:2 bass 
V:4 bass 
V:1
 z4 z2[Q:1/4=100] [DF][DF] | [Fd]>[Fd] [Fd][Ge] [Fd][Ec][DB][EG] | [DF]2 z2 z4 | %3
 A>A AB c[Fc][FB]c | d6 [DF][DF] | [Fd]>[Fd] [Fd][Ge] [Fd][Ec][DB][EG] | [DF]2 z2 z4 | %7
 [EG]>[EG] [=Ec][FB] BAGA |[M:3/4] [DB]6 |[M:1/4] de |[M:4/4] z2 c4 z2 | %11
 z2 [DB]4[K:bass][K:treble] z2 | [CEA]3 [CEG] [CEA]2 [A,EG]2 | B,4 z2 de | z2 c4 z2 | c2 [DB]4 z2 | %16
 [B,DF]2 [Ge]2 d3 c |[M:3/4] [DB]6 |] %18
V:2
 z4 z2 [B,,B,][B,,B,] | [B,,B,]>[B,,B,] [B,,B,][B,,B,] [B,,B,][B,,B,][B,,B,][B,,B,] | %2
 .[B,,B,]2 [B,,=E,]2 B,,2 B,,B,, | %3
 [F,CF]>[F,CF] [F,CF][F,B,F] [F,A,F][E,A,][D,B,][K:treble][F,A,F] | [B,F]6[K:bass] [B,,B,][B,,B,] | %5
 [B,,B,]>[B,,B,] [B,,B,][B,,B,] [B,,B,][B,,B,][B,,B,][B,,B,] | %6
 .[B,,B,]2 [B,,=E,]2 [B,,F,]2 [B,,B,][B,,B,] | [E,B,]>[E,B,] [C,C][C,C] [F,CF][F,CF][G,CE][F,E] | %8
[M:3/4] [B,,F,]6 |[M:1/4][K:treble] FG |[M:4/4] F2[K:bass] E->[F,E-] [F,E-][F,E][F,A,E][F,A,F] | %11
 [B,,B,][B,,B,][B,,F,]B,, B,,B,,B,,B,, | F,3 F, F,2 F,2 | B,,2 D,F, B,2[K:treble] FG | %14
 F2[K:bass] E->[F,E-] [F,E-][F,E][F,A,E][F,A,F] | .[G,B,]2 z2 z4 | F,2 [F,B,]2 [F,A,F]3 [F,E] | %17
[M:3/4] [B,,F,]6 |] %18
V:3
 x8 | x8 | z F, [_DG]2 [F,=DF]2 [B,DF][DFB] | x8 | x8 | x8 | z F, [_DG]2 [=DF]2 [DF][DF] | x8 | %8
[M:3/4] x6 |[M:1/4] x2 |[M:4/4] d2 z z/ A,/ A,A,cd | [Ec]2 z[K:bass] F, F,F,[K:treble][B,DF][DFB] | %12
 x8 | [DF]6 z2 | d2 z z/ A,/ A,A,cd | z B,B,B, B,B,[B,FA][B,EG] | x8 |[M:3/4] x6 |] %18
V:4
 x8 | x8 | x8 | x7[K:treble] x | x6[K:bass] x2 | x8 | x8 | x8 |[M:3/4] x6 |[M:1/4][K:treble] x2 | %10
[M:4/4] z2[K:bass] [F,A,]2 z4 | x8 | x8 | x6[K:treble] x2 | z2[K:bass] [F,A,]2 z4 | %15
 E-[G,E]G,G, G,G,E,E, | x8 |[M:3/4] x6 |] %18

